svg/translation.svg

<svg xmlns="http://www.w3.org/2000/svg" viewBox="0 0 32 32" enable-background="new 0 0 32 32"><path d="M 4 4 L 4 5 L 4 21 L 4 22 L 5 22 L 10 22 L 10 27 L 10 28 L 11 28 L 27 28 L 28 28 L 28 27 L 28 11 L 28 10 L 27 10 L 22 10 L 22 5 L 22 4 L 21 4 L 5 4 L 4 4 z M 6 6 L 20 6 L 20 10.5625 L 10.5625 20 L 6 20 L 6 6 z M 11 8 L 11 9 L 8 9 L 8 11 L 12.9375 11 C 12.808302 12.14879 12.455729 13.053978 11.875 13.6875 C 11.53304 13.57592 11.221935 13.432458 10.96875 13.28125 C 10.266346 12.861759 10 12.418627 10 12 L 8 12 C 8 13.19192 8.733884 14.181923 9.71875 14.84375 C 9.2270118 14.948374 8.6546512 15 8 15 L 8 17 C 9.7715922 17 11.248287 16.5953 12.375 15.84375 C 12.899447 15.935322 13.428051 16 14 16 L 14 14.125 C 14.542529 13.216096 14.832783 12.1523 14.9375 11 L 16 11 L 16 9 L 13 9 L 13 8 L 11 8 z M 21.4375 12 L 26 12 L 26 26 L 12 26 L 12 21.4375 L 21.4375 12 z M 20 13.84375 L 19.0625 16.6875 L 17.0625 22.6875 L 17 22.84375 L 17 23 L 17 24 L 19 24 L 19 23.125 L 19.03125 23 L 20.96875 23 L 21 23.125 L 21 24 L 23 24 L 23 23 L 23 22.84375 L 22.9375 22.6875 L 20.9375 16.6875 L 20 13.84375 z M 20 20.125 L 20.28125 21 L 19.71875 21 L 20 20.125 z"/></svg>

<svg xmlns="http://www.w3.org/2000/svg" viewBox="0 0 32 32"><path d="M4 4v18h6v6h18V10h-6V4H4zm2 2h14v4.563L10.562 20H6V6zm5 2v1H8v2h4.938c-.13 1.15-.482 2.054-1.063 2.688-.342-.112-.653-.256-.906-.407-.704-.418-.97-.86-.97-1.28H8c0 1.192.734 2.182 1.72 2.844C9.226 14.948 8.654 15 8 15v2c1.772 0 3.248-.405 4.375-1.156.524.09 1.053.156 1.625.156v-1.875c.543-.91.833-1.973.938-3.125H16V9h-3V8h-2zm10.438 4H26v14H12v-4.563L21.438 12zM20 13.844l-.938 2.844-2 6-.062.156V24h2v-.875l.03-.125h1.94l.03.125V24h2v-1.156l-.063-.157-2-6L20 13.845zm0 6.28l.28.876h-.56l.28-.875z"/></svg>
